markup/sourceimages/icon18.svg

<svg xmlns="http://www.w3.org/2000/svg" width="56" height="56"><path fill-rule="evenodd" fill="#5393DD" d="M28 0C12.561 0 0 12.561 0 28s12.561 28 28 28 28-12.561 28-28S43.439 0 28 0zm25.921 32.14l-3.399-5.635 2.345-6.895a26.13 26.13 0 0 1 1.054 12.53zm-6.613 13.621a.87.87 0 0 0-.357-.018l-8.469 1.358a.862.862 0 0 0-.107-.302l-4.814-8.023 7.784-11.988h7.374c.02.095.041.188.092.273l4.581 7.593a26.21 26.21 0 0 1-6.084 11.107zm-8.825 3.112l6.727-1.078a26.21 26.21 0 0 1-10.242 5.509l3.515-4.431zM11.069 7.962a26.125 26.125 0 0 1 16.299-6.196c.046.12.11.234.21.329l4.835 4.562-1.912 7.136-12.458 4.782c-.045-.037-.081-.082-.134-.11l-7.762-4.113.922-6.39zm22.519-2.604L29.84 1.822a26.04 26.04 0 0 1 9.615 2.564l-5.867.972zM19.189 33.895l-.714-13.61L31.198 15.4l8.578 10.593-7.423 11.43-13.164-3.528zm32.703-16.749c-.027.048-.063.086-.081.14l-2.639 7.752h-7.917l-8.983-11.093 1.849-6.901 7.236-1.2a.853.853 0 0 0 .396-.191 26.425 26.425 0 0 1 10.139 11.493zM9.022 9.893L8.32 14.76l-4.68 3.478a26.295 26.295 0 0 1 5.382-8.345zM2.674 21.111c.038-.02.079-.032.115-.059l6.769-5.033 7.139 3.783.777 14.819c.001.022.011.042.014.064l-6.747 6.675c-.057.057-.091.127-.13.195L4.142 38.78c-.024-.011-.05-.008-.074-.016a26.142 26.142 0 0 1-1.394-17.653zm2.644 20.077l4.738 2.032 3.624 6.763a26.457 26.457 0 0 1-8.362-8.795zm11.164 10.394c-.016-.056-.022-.115-.05-.168l-4.653-8.683c.067-.038.136-.07.193-.127l7.023-6.95 12.694 3.402 5.186 8.644a.851.851 0 0 0 .156.19l-4.768 6.009A26.397 26.397 0 0 1 28 54.25c-4.13 0-8.038-.962-11.518-2.668z"/></svg>

<svg 
 xmlns="http://www.w3.org/2000/svg"
 xmlns:xlink="http://www.w3.org/1999/xlink"
 width="56px" height="56px">
<path fill-rule="evenodd"  fill="rgb(83, 147, 221)"
 d="M28.000,-0.000 C12.561,-0.000 -0.000,12.561 -0.000,28.000 C-0.000,43.439 12.561,56.000 28.000,56.000 C43.439,56.000 56.000,43.439 56.000,28.000 C56.000,12.561 43.439,-0.000 28.000,-0.000 ZM53.921,32.140 L50.522,26.505 L52.867,19.610 C53.759,22.247 54.250,25.066 54.250,28.000 C54.250,29.409 54.135,30.790 53.921,32.140 ZM47.308,45.761 C47.195,45.732 47.074,45.723 46.951,45.743 L38.482,47.101 C38.464,46.998 38.433,46.895 38.375,46.799 L33.561,38.776 L41.345,26.788 L48.719,26.788 C48.739,26.883 48.760,26.976 48.811,27.061 L53.392,34.654 C52.291,38.859 50.168,42.654 47.308,45.761 ZM38.483,48.873 L45.210,47.795 C42.290,50.338 38.804,52.246 34.968,53.304 L38.483,48.873 ZM11.069,7.962 C15.493,4.218 21.167,1.914 27.368,1.766 C27.414,1.886 27.478,2.000 27.578,2.095 L32.413,6.657 L30.501,13.793 L18.043,18.575 C17.998,18.538 17.962,18.493 17.909,18.465 L10.147,14.352 L11.069,7.962 ZM33.588,5.358 L29.840,1.822 C33.267,2.061 36.515,2.953 39.455,4.386 L33.588,5.358 ZM19.189,33.895 L18.475,20.285 L31.198,15.400 L39.776,25.993 L32.353,37.423 L19.189,33.895 ZM51.892,17.146 C51.865,17.194 51.829,17.232 51.811,17.286 L49.172,25.038 L41.255,25.038 L32.272,13.945 L34.121,7.044 L41.357,5.844 C41.511,5.819 41.639,5.744 41.753,5.653 C46.172,8.383 49.720,12.386 51.892,17.146 ZM9.022,9.893 L8.320,14.760 L3.640,18.238 C4.896,15.115 6.734,12.289 9.022,9.893 ZM2.674,21.111 C2.712,21.091 2.753,21.079 2.789,21.052 L9.558,16.019 L16.697,19.802 L17.474,34.621 C17.475,34.643 17.485,34.663 17.488,34.685 L10.741,41.360 C10.684,41.417 10.650,41.487 10.611,41.555 L4.142,38.780 C4.118,38.769 4.092,38.772 4.068,38.764 C2.584,35.477 1.750,31.835 1.750,28.000 C1.750,25.615 2.075,23.308 2.674,21.111 ZM5.318,41.188 L10.056,43.220 L13.680,49.983 C10.255,47.743 7.385,44.729 5.318,41.188 ZM16.482,51.582 C16.466,51.526 16.460,51.467 16.432,51.414 L11.779,42.731 C11.846,42.693 11.915,42.661 11.972,42.604 L18.995,35.654 L31.689,39.056 L36.875,47.700 C36.919,47.773 36.971,47.835 37.031,47.890 L32.263,53.899 C30.874,54.126 29.452,54.250 28.000,54.250 C23.870,54.250 19.962,53.288 16.482,51.582 Z"/>
</svg>
